X:877
T:The Munster Gimlet
R:Slip Jig
O:Ireland
B:Kerr's Second p32
S:Kerr's Second p32
Z:Transcription, chords:Mike Long
M:9/8
L:1/8
K:F
d|:\
"F"cAG "G"G2G G2d|"F"cAG "G"GAd "F"fed|\
"F"cAG "G"G2G G2A|[1 "F"FAc fed cAd:|
[2 "F"FAc fed cAF|]\
"G"G2g gag g2G|G2g g2a bag|\
"F"d2e fge f2A|Afe fed cAF|
"G"G2g gag g2G|G2g g2a bag|\
bag bag bag|"F"fge f2d fed|]
